X:1
T:Altro non e'l mio amor
T:Girolamo Scotto
T:Source : Madrigali a tre voci---Venetia---G.Scotto---1541. Editor : André Vierendeels (29/07/16).
T:Notes : Original clefs : C3, C3, F4 Editorial accidentals above the staff Original note values have been halved "Quinti toni" 
T:Altro non e'l mio amor
T:©
T:©
T:©
T:©
T:©
T:©
T:©
C:Girolamo Scotto
Z:©
%%score [ 1 2 3 ]
L:1/8
Q:1/4=123
M:2/2
K:F
V:1 treble-8 nm="Tenor 1" snm="T 1"
V:2 treble-8 nm="Tenor 2" snm="T 2"
V:3 bass nm="Bass" snm="B"
V:1
 c4 d2 c2 | d2 e2 f2 d2 | d2 d2 e2 f2 | d3 e f3 e/d/ | c2 d4 cB | A2 c4 A2- | A2 B2 G4 | A2 c4 B2 | %8
w: Al- tro non|e'l mi- o'a- mor,|al- tro non e'l|mi- o'a- * * *||mor, ch'elp- pio|_ in- fer-|no, ch'elp- pio|
 c2 _e2 d2 f2- | fe/d/ e2 f4 | z8 | z2 c2 c2 c2 | f6 ed | e8 | d4 g4 | c4 d2 e2 | f4 e4- | %17
w: in- fer- * *|* * * * no,||per- che l'in-|fer- * *|no|è sol|ve- der- si|pri- vo,|
 e2 f2 g2 c2- | c2 d2 A2 d2- | d2 c2 d4- | d4 z2 G2 | c2 c2 F2 F2 | B2 A2 F2 f2- | f2 _e4 d2- | %24
w: _ è sol ve-|* der si pri-|* * vo,|_ di|con- tem- plar in|ciel un sol Di-|* o vi-|
 dc c4 B2 | c4 z2 c2 | c2 c2 A2 A2 | B3 c d2 G2- | G2 c4 d2- | dc c4 B2 | c2 d3 e f2- | f2 e2 f4- | %32
w: |no, ne|al- tro duol vi|è _ _ nel|_ fo- co|_ e- ter- *||* * no.|
 f8 || f4 f2 f2 | e2 e2 f4 | f4 z4 | c6 B2 | c2 d2 G2 c2- | cBAG F2 c2 | c2 B2 d2 c2 | %40
w: _|A- don- qu'il|pro- prio'in- fer-|no,|è l'a-|mor mi- * *|* * * * o, ch'in|tut- to pri- vo|
 B2 G2 A2 c2- | cdef g2 f2- | f2 e2 f2 c2 | d4 e4 | f4 B3 c | de f4 _e2 | d2 g2 f2 e2 | d4 e4 | %48
w: di ve- der son|_ _ _ _ _ i-|* * o, quel|dol- ce|ben che _|_ _ sol ve-|der de- si- *|* o,|
 c8 | c2 c2 A2 A2 | c2 G2 A2 c2 | d2 e2 f4 | e4 z2 d2- | d2 c2 d2 e2 | fedc d2 d2 | c4 B2 c2 | %56
w: hai|pos- sa- za d'a-|mor quan- to, quan-|to sei for-|te, che|_ fai gu- star|_ _ _ _ _ l'in-|fer- n'an- zi|
 d3 c B2 A2 | B2 G2 A2 F2 | G2 A2 B4 | A2 c2 d2 B2 | c2 d2 _e2 e2 | d4 e2 d2- | dc/B/ c2 d4- | %63
w: la _ _ mor-|te, che fai gu-|star l'in- fer-|no, che fai gu-|star l'in- fer- no'an-|zi la mor-||
 d2 cB A4 | G2 g2 f2 c2 | c2 c2 d2 e2 | f4 e2 g2- | gf f4 e2 | f8 |] %69
w: |te, che fai gu-|star l'in- fer- no'an-|zi la mor-||te.|
V:2
 F4 F2 F2 | F2 E2 D2 F2 | F2 F2 G2 A2 | B3 c d2 D2 | F2 F3 E/D/ E2 | F3 G A2 F2 | D2 G3 F E2 | %7
w: Al- tro non|e'l mi- o'a- mor,|al- tro non e'l|mi- o'a- mor, al-|tre non _ _ _|e'l _ _ mi-|o'a- * * *|
 F3 E D4 | E2 G2 F2 B2 | G4 A2 c2- | c2 G4 A2 | G4 A4 | z2 F2 F2 F2 | c2 G3 FGA | B6 AG | %15
w: |mor, ch'elp- pio in-|fer- no, ch'elp-|* pio in-|fer- no,|per- che l'in-|fer- no'è _ _ _|_ _ _|
 A3 G AB c2- | cB/A/ B2 c4- | c2 BA G2 A2- | AG F4 ED | E4 z2 D2 | G2 G2 E2 E2 | F2 E2 D2 d2- | %22
w: sol _ _ _ _|_ _ _ _ ve-|* * * der si|_ _ pri- * *|vo, di|con- tem- plar in|ciel un sol Di-|
 d2 c2 A2 B2 | G6 G2 | F2 E2 D4 | C2 E2 E2 E2 | F2 E2 F3 E | D2 G2 G2 G2 | E2 E2 F4- | F2 F2 D4 | %30
w: * o vi- no,|un sol|Di- o vi-|no, ne al- tro|duol vi è, _|_ ne al- tro|duol vi è|_ nel fo-|
 E2 F3 G A2 | G4 F4- | F8 || c4 A2 A2 | G2 c2 A2 B2 | AGAB cd c2- | cBAG A2 G2- | GF F4 E2 | %38
w: co'e- ter- * *|* no.|_|A- don qu'il|pro- prio'in- fer- *|* * * * * * no'è|_ _ _ _ _ l'a-|* mor mi- *|
 F4 z2 G2 | G2 G2 B2 A2 | G4 F2 A2- | A2 G4 A2 | G4 z2 F2- | F2 G4 A2- | A2 B2 G4 | A3 B c2 G2- | %46
w: o; ch'in|tut- to pri- vo|di ve- der|_ son i-|o, quel|_ dol- ce|_ ben che|sol ve- der de-|
 GABc d2 c2- |"^-natural" c2 B2 c4 | A8 | G2 G2 F2 F2 | E2 E2 F2 A2- | AB c4 B2 | c2 G2 A2 F2 | %53
w: * * * * * si-|* * o,|hai|pos- sa- za d'a-|mor quan- to sei-|* * for- *|te, che fai gu-|
 GG A2 B2 G2 | A2 A2 B2 B2 | A4 D2 F2- | F2 D3 E F2- | F2 E2 F2 D2 | E2 C2 DD E2 | F2 A2 B2 G2 | %60
w: star l'in- fer- no, che|fai gu- star l'in-|fer- no'an- zi|_ la _ mor-|* * te, che|fai gu- star l'in- fer-|no, che fai gu-|
 F2 F2 c2 G2 | BAGF GA B2- | B2 AG A2 B2- | BA G4 F2 | G2 E2 F2 G2 | A3 G AB c2- | c2 B2 c2 G2 | %67
w: star l'in- fer- no'an-|zi _ _ _ la _ mor-|||te, che fai gu-|star _ _ _ _|_ l'in- fer- no'an-|
 A2 B2 G4 | A8 |] %69
w: zi la mor-|te.|
V:3
 F,,4 B,,2 A,,2 | B,,2 C,2 B,,4- | B,,4 z4 | z2 B,,2 B,,2 B,,2 | A,,2 B,,2 G,,4 | F,,8 | z8 | z8 | %8
w: Al- tro non|e'l mio'a- mor,|_|al- tro non|e'l mi- o'a-|mor|||
 C,4 D,2 B,,2 | C,4 F,,3 G,, | A,,B,,C,D, E,2 F,2- | F,2 E,2 F,4 | D,3 C, B,,4 | A,,2 C,2 C,2 C,2 | %14
w: ch'elp- pio in-|fer- * *||||no, per- che l'in-|
 G,6 F,E, | F,3 E, D,2 C,2 | D,4 A,,2 A,2- | A,G, F,2 E,2 F,2- | F,E, D,4 C,B,, | A,,4 B,,4 | %20
w: fer _ _|_ _ no, è|sol ve- der-|* * * si pri-||* vo,|
"^-natural" z2 G,,2 C,2 C,2 | A,,2 A,,2 B,,3 A,, | G,,2 A,,2 D,2 B,,2 | C,4 G,,3 A,, | %24
w: di con- tem-|plar in ciel _|_ un sol Di-|o vi- *|
 B,,2 C,2 G,,4 | z2 C,2 C,2 C,2 | A,,2 A,,2 F,,2 F,,2 | G,,3 A,, B,,2 C,2- | %28
w: * * no,|ne al- tro|duol vi è nel|fo- * * *|
 C,B,,A,,G,, A,,2 B,,2- | B,,2 F,,2 G,,4 | C,2 B,,4 F,,2 | C,4 F,,4- | F,,8 || F,4 F,2 F,2 | %34
w: * * * * * co-|* e- ter-|* no, e-|ter- no.|_|A- don- qu'il|
 C,2 C,2 D,2 B,,C, | D,E, F,4 E,2 | F,2 F,,4 G,,2 | A,,2 B,,2 C,4 | F,,3 G,, A,,B,,C,D, | %39
w: pro- prio'in- fer- * *||no'è l'a- mor|mi- * o,|ch'in _ _ _ _ _|
 E,F, G,3 F, F,2- | F,2 E,2 F,2 F,2 | C,2 C,2 C,2 F,,2 | C,4 F,,2 A,,2 | B,,4 C,4 | D,4 E,4 | %45
w: _ _ _ _ tut-|* to di ve-|der pri- vo son|i- o, quel|dol- ce|ben che|
 D,4 C,4 | G,,3 A,, B,,2 C,2 | G,,4 C,4 | F,8 | C,2 C,2 D,2 D,2 | A,,2 C,2 F,,2 F,2- | %51
w: sol ve-|der _ _ de-|si- o,|hai|pos- sa- za d'a-|mor quan- to sei|
 F,2 E,2 D,4 | C,4 F,,2 B,,2- | B,,2 A,,2 G,,4 | F,,4 z2 G,,2 | A,,2 F,,2 G,,2 A,,2 | %56
w: _ for- *|te, quan- to|_ si for-|te, che|fai gu- star l'in-|
 B,,3 A,, G,,2 F,,2 | G,,4 F,,2 B,,2- | B,,2 A,,2 G,,4 | F,,4 z2 G,,2 | A,,2 B,,2 C,2 C,2 | %61
w: fer- nan- zi la|mor- te, la-|* * mor-|te, che|fai gu- star l'in-|
 D,2 B,,2 C,2 D,2 |"^b" E,4 D,4 | G,,4 z2 D,2 | E,2 C,2 D,2 E,2 | F,3 E, D,2 C,2 | D,4 C,2 _E,2 | %67
w: fer- no'an- zi la|mor- *|te, che|fai gu- star l'in-|fer _ _ no'an-|zi la mor-|
 D,2 B,,2 C,4 | F,,8 |] %69
w: |te.|

